!!!ONB: MCCC : IFC0057_01 : Extracted Monophonic Melody
!!!COM: Chopin, Frédéric
!!!OPR: Mazurkas
!!!OMV: 1
!!!SCT: Op.63
!!!ODT: 1846///
**kern
*thru
*staff1
*Ipiano
*>A
*clefG2
*k[]
*a:
*M3/4
*MM120
=1
8ee
8b
4cc
4a
=2
8b
8g#
2e
=3
8f#
8g#
4a
4b
=4
8cc
8ff
2ee
=5
8gg
8dd
4ee
4cc
=6
8dd
8b
2g
=7
8a
8b
4cc
4dd
=8
8.ee
16ff#
2ff#
=9
8gg#
8b
4gg#
8ff#
8gg#
=10
8ee
16r
16b
2ee
=11
8ff
8a
4dd
8.b
16cc
=12
8a
16r
16g#
2a
=13
*>A
8ee
8b
4cc
4a
=14
8b
8g#
2e
=15
8f#
8g#
4a
4b
=16
8cc
8ff
2ee
=17
8gg
8dd
4ee
4cc
=18
8dd
8b
2g
=19
8a
8b
4cc
4dd
=20
8.ee
16ff#
2ff#
=21
8gg#
8b
4gg#
8ff#
8gg#
=22
8ee
16r
16b
2ee
=23
8ff
8a
4dd
8.b
16cc
=24
8a
16r
16g#
[2a
=25
*>B
4a]
8f#
8g#
8a
8ff#
=26
8ee
8a
2g#
=27
8a-
8a-
8f
8g
8a-
8ff
=28
8ee-
8a-
4.g
8f#
=29
8g
8g
8e
8f#
8g
8ee
=30
8dd
8g
8f#
8g
8g#
8b
=31
8.a
16d#
8.f#
16e
8.g
16B
=32
8.A
16e
8.d
16g
8.f#
16b
=33
12a
12b
12a
8.g#
16g
8.a
16ee
=34
8.dd
16g
8.f#
16g
8.g#
16b
=35
8.a
16e#
8.f#
16g
8.g#
16b
=36
12a
12b
12a
8.f#
16g
8.g#
16b
=37
8.a
16g
8.g
16f
8.f
16d#
=38
8.d#
16e
2e
=39
8f#
8g#
4a
4b
=40
8cc
8ff
8ee
8cc
8ee
8ff#
=41
8gg
8dd
8ee
8b
8cc
8a
=42
8dd
8b
2g
=43
8a
8b
4cc
4dd
=44
8.ee
16ff#
2ff#
=45
8gg#
8b
4gg#
8ff#
8gg#
=46
8ee
16r
16b
2ee
=47
8ff
8a
4dd
8.b
16cc
=48
8.a
16g#
2a[
=49
*k[f#c#g#]
4a]
4c#
8.e
16d
=50
2.r
=51
2r
8.e
16d
=52
2.r
=53
8c#
8d
8d#
8e
8.cc#
16ff#
=54
4ee
4.aa
8gg#
=55
2gg#
8gg#
8ff#
=56
8ee
8dd
8ee
8ee#
8ff#
8ee
=57
4.dd
8cc#
8ee
8dd
=58
8b#
8cc#
4.dd
8cc#
=59
8d#
8f#
8g#
8a
8cc#
8b
=60
8a
8B
8d
8e
8f#
8g#
=61
8f#
8c#
8e
8dd
8cc#
8ff#
=62
8.ee
16a
4.aa
[8gg#
=63
8gg#]
8a
8dd
8ee
8.gg#
16ff#
=64
8ff#
8ee
8dd#
8cc#
8dd#
8ee
=65
8.a#
16b
8dd#
8a#
8cc#
8b
=66
8.ee
16a#
8cc#
8b
8ee#
8a#
=67
8cc#
8b
8ccc#
16r
16bb
8aa#
8aa
=68
8gg#
8ff#
12ff
12ee
12dd#
12dd
12cc#
12cc
=69
8.b
16cc
4.g
8a
=70
8.b
16b
4.d
8g
=71
8e#
8f#
8gg
16r
16ff#
8ee#
8ee
=72
8dd#
8dd
12cc#
12cc
12b
12a
12g
12f#
=73
8.b
16cc
4.g#
8a
=74
8.b
16b
4.d
8e
=75
8e#
8f#
8ee
16r
16dd#
8dd
8cc#
=76
8cc
8b
12a#
12a
12g#
12g
12f#
12f
=77
8.b
16cc
4.g
8a
=78
8.b
16b
4.d
8g
=79
8e#
8f#
8gg
16r
16ff#
8ee#
8ee
=80
8dd#
8dd
16cc#
16cc
16b
16a#
20a
20g#
20g
20f#
20f
=81
8.b
16cc
4.g
8a
=82
8.b
16b
4d#
4g#
=83
8.f#
16ee
4.dd#
8cc#
=84
8b
16r
16dd#
4ff#
4bb
=85
8.f#
16ee
4.dd#
8cc#
=86
8b
16r
16dd#
4ff#
4bb
=87
8b
16r
16dd#
4ff#
4bb
=88
8b
8dd#
8ff##
8bb
8bbb
8r
=89
8b
8f##
8c##
8d#
8f#
8f##
=90
8b
8f##
8b
8dd#
8ff#
8ee
=91
*k[f#c#g#d#a#]
8dd#
8a#
4b
4g#
=92
8a#
8f##
2d#
=93
8e#
8f##
4g#
4a#
=94
8b
8ee
2dd#
=95
8ff#
8cc#
4dd#
4b
=96
8cc#
8a#
2f#
=97
8g#
8a#
4b
4cc#
=98
8.dd#
16ee#
2ee#
=99
8ff##
8a#
4ff##
8ee#
8ff##
=100
8dd#
16r
16a#
2dd#
=101
8ee
8g#
4cc#
8.a#
16b
=102
8g#
16r
16f##
2g#
=103
*k[]
4a-
8f
8g
8a-
8ff
=104
8ee-
8a-
4g
8.cc
16b-
=105
12a-
12b-
12a-
8f
8g
8a-
8ff
=106
8ee-
8a-
4.g
8f#
=107
4g
8e
8f#
8g
8ee
=108
8dd
8g
8f#
8g
8g#
8b
=109
8.a
16d#
8.f#
16e
8.g
16B
=110
8.A
16e
8.d
16g
8.f#
16b
=111
12a
12b
12a
8.g#
16g
8.a
16ee
=112
8.dd
16g
8.f#
16g
8.g#
16b
=113
8.a
16e#
8.f#
16g
8.g#
16b
=114
12a
12b
12a
8.f#
16g
8.g#
16b
=115
8.a
16g
8.g
16f
8.f
16d#
=116
8.d#
16e
2e
=117
8.f#
16g#
4a
4b
=118
8cc
8ff
8ee
8cc
8ee
8ff#
=119
8gg
8dd
8ee
8b
8cc
8a
=120
8dd
8b
2g
=121
8a
8b
4cc
4dd
=122
8.ee
16ff#
2ff#
=123
8gg#
8b
4gg#
8ff#
8gg#
=124
8ee
16r
16b
2ee
=125
8ff
8a
4dd
8.b
16cc
=126
8a
16r
16g#
[2a
=127
2.a_
=128
2.a]
=129
4r
8A
8c
8.cc
16b
=130
4ff#
4ccc
4r
=131
2.r
=132
2.r
=133
8r
8A
8c
8f
8.cc
16b
=134
4ff
4ccc
4r
=135
8r
16r
16g
8.g
16f
8.f
16d#
=136
8.d#
16e
[2e
=137
2.e]
=138
8.d#
16e
2e
=139
8.d#
16e
[2e
=140
2.e]
=141
8f
8f#
8g
8g#
8ff
8g#
=142
8b
8a
4aa
4r
==
*-
